X:1
T:Par tous moyens
T:Par tous moyens
T:Thomas Crecquillon
C:Thomas Crecquillon
%%score [ 1 2 [ 3 4 ] ]
L:1/8
Q:1/4=80
M:2/2
K:C
V:1 treble nm="Superius" snm="S"
V:2 treble nm="Altus" snm="A"
V:3 treble-8 nm="Tenor 1" snm="T 1"
V:4 treble-8 nm="Tenor 2" snm="T 2"
V:1
 A6 c2- | c2 B4 A2- | A2 GF G4 | z2 G2 A2 B2 | c2 d2 edcB | A2 c2 B2 A2- |"^#" A2 G2 A4 | %7
w: Par tous|_ moy- ens|_ _ _ _|j'ay cher- chie|ton _ _ _ _ _|_ _ _ a-|* * mour,|
 z4 z2 c2 | d2 B2 c3 c | c2 c2 d2 c2 | d4 efge | fd f4 e2- | ec e4 d2- |"^#" d2 c2 d2 d2 | %14
w: la|de- si- rant plus|que nul _ du|mon- * * * *|||* * de, mais|
 d2 d2 c2 f2 | f2 f2 edcB | A2 c2 B2 A2- | A2 G2 A2 e2 | fedc BA c2- | c2 B4 A2- | %20
w: sans mer- chie en|toy ri- gueur _ _ _|_ ha- bon- *||||
"^#" A2 G2 A2 A2 |: B2 c2 d2 f2 | ecee d2 d2 | cAcc B2 d2 | c2 B4 A2- |1 A2 G2 A2 A2 :|2 %26
w: * * de, dont|prent con- gie sans|es- poir de re- tour, sans|es- poir de re- tour, sans|es- poir de|_ re- tour, dont|
 A2 G2 A4- || A8 |] %28
w: (de) re- tour.|_|
V:2
 E8 | G4 E4 | E8 | z2 E2 F2 G2- | GA F2 E4 | F2 G4 F2 | E8 | z4 z2 A2 | F2 G2 A4 | z2 A2 A2 A2 | %10
w: Par|tous moy-|ens|j'ay cher- chie|_ _ ton _|_ _ a-|mour,|la|de- si- rant,|la de- si-|
 B2 A2 G4 | F3 G AB c2- |"^b""^b" cB G2 B4 | A4 F2 D2 | DEFG A4- | A4 z2 A2 | E2 A2 G2 F2 | %17
w: rant plus que|nul _ _ _ _|_ _ du mon-|de, mais sans|mer- * * * chie|_ en|toy ri- gueur ha-|
 FE D4 C2 | D2 D2 G4- | G2 F2 E2 D2 | E4 z2 E2 |: G2 G2 A4 | c2 GG BB F2 | A2 EE G2 A2- | %24
w: bon- * * *|de, en toy|_ ha- bon- *|de, dont|prent con- gie|sans es- poir de re- tour,|sans es- poir de re-|
 A2 G2 E2 F2 |1 E4 z2 E2 :|2 E8- || E8 |] %28
w: |tour, dont|tour.|_|
V:3
 A3 B cd e2- | e2 d2 c4 | B8 | z2 B2 c2 d2 | cA B2 c2 c2 | d2 e2 d2 c2 | B4 A2 c2 | d2 B2 c4 | %8
w: Par _ _ _ tous|_ _ moy-|ens|j'ay cher- chie|ton- _ a- mour, j'ay|cher- chie ton a-|* mour, la|de- si- rant,|
 z2 e2 e2 e2 | fd e2 f2 e2- | e2 d2 d2 c2 | d4 A4 | z2 e2 f2 g2 | e4 d4 | z4 z2 d2 | d2 d2 c2 c2 | %16
w: la de- si-|rant _ _ plus que-|_ _ nul du|mon- de,|que nul du|mon- de,|mais|sans mer- chie en|
 c3 d e2 c2 | d2 d2 e4 | dcBA G2 e2- | e2 d2 c2 BA | B4 A2 c2 |: d2 e2 f4 | a2 ee gg d2 | %23
w: toy _ _ ri-|gueur ha- bon-|||* de, dont|prent con- gie|sans es- poir de re- tour,|
 f2 cc e2 f2- | fe d2 c2 d2 |1 B4 A2 c2 :|2 B4 A4- || A8 |] %28
w: sans es- poir de re-||* tour, dont|(re)- tour.|_|
V:4
 A8 | G4 A4 | E8 | z2 E2 A2 G2 | EF D2 C2 C2 | F2 E2 G2 A2 | E4 z2 A2 | F2 G2 A4 | z4 A4 | %9
w: Par|tous moy-|ens|j'ay cher- chie|ton _ a- mour, jay|cher- chie ton a-|mour, la|de- si- rant,|la|
 A2 A2 D2 AA | G2 F2 E4 | D2 d4 c2 |"^b" A2 c2 B2 G2 | A4 D4 | z4 z2 D2 | DEFG A2 A2 | %16
w: de- si- rant plus que|nul du mon-|de, plus que|nul _ _ du|mon- de,|mais|sans _ _ _ _ mer-|
 A2 F2 G2 A2 |"^b" B4 A4 | D2 G3 FED | C2 D2 E2 F2 | E4 z2 A2 |: G2 E2 D2 d2 | cAcc G2 B2 | %23
w: chie en toy ri-|gueur ha-|bon- * * * *||de, dont|prent con- gie sans|es- poir de re- tour, sans|
 FFAA E2 D2 | F2 G2 A2 D2 |1 E4 z2 A2 :|2 E4 A,4- || A,8 |] %28
w: es- poir de re- tour, sans|es- poir de re-|tour, dont|tour. _|_|

